static/assets/img/icons/theme/food/dinner.svg

<svg height="24" viewBox="0 0 24 24" width="24" xmlns="http://www.w3.org/2000/svg"><g fill="none" fill-rule="evenodd"><path d="m0 0h24v24h-24z" opacity="0"/><g fill="#000"><path d="m12 8c-1.1045695 0-2-.8954305-2-2s.8954305-2 2-2 2 .8954305 2 2-.8954305 2-2 2zm-9 10h18c.5522847 0 1 .4477153 1 1s-.4477153 1-1 1h-18c-.55228475 0-1-.4477153-1-1s.44771525-1 1-1z" opacity=".3"/><path d="m21 16c0-4.9705627-4.0294373-9-9-9-4.97056275 0-9 4.0294373-9 9z"/></g></g></svg>

<svg width="24px" height="24px" viewBox="0 0 24 24" version="1.1" xmlns="http://www.w3.org/2000/svg" xmlns:xlink="http://www.w3.org/1999/xlink">
    <title>Icon For Dinner</title>
    <g stroke="none" stroke-width="1" fill="none" fill-rule="evenodd">
        <rect opacity="0" x="0" y="0" width="24" height="24"></rect>
        <path d="M12,8 C10.8954305,8 10,7.1045695 10,6 C10,4.8954305 10.8954305,4 12,4 C13.1045695,4 14,4.8954305 14,6 C14,7.1045695 13.1045695,8 12,8 Z M3,18 L21,18 C21.5522847,18 22,18.4477153 22,19 C22,19.5522847 21.5522847,20 21,20 L3,20 C2.44771525,20 2,19.5522847 2,19 C2,18.4477153 2.44771525,18 3,18 Z" fill="#000000" opacity="0.3"></path>
        <path d="M21,16 C21,11.0294373 16.9705627,7 12,7 C7.02943725,7 3,11.0294373 3,16 C3,16 21,16 21,16 Z" fill="#000000"></path>
    </g>
</svg>
